X:1
T:Krepolska
T:(SvL Skne nr. 1374)
C:efter Lasse Lyby
R:Polska
Z:Patrik Mnsson, 2008-12-12
O:Lyby, Skne
S:Svenska Ltar
N:Noten jag transkriberade kommer frn Jubileumshfter fr Sknes Spelmansfrbunds 70-rsjubileum den 21 oktober 2006 dr den ges fljande kommentar: "Folkmusikvgen rullade p under 1980-talet, med bordunmusik, Filarfolket och frsk att n ursprunglighet och folklighet. Denna polska med lderdomlig karaktr efter en mystisk kornspelman r ett bra exempel."
M:3/4
L:1/16
K:A
|: ABcd e4 a4 | a(gb)g e4 c4 | d3(e f2)(d2 c2)(A2 | c2)c2 B2(G2 A4) :|
|: A3(B c2)(A2 B2)=G2 | A3(B c2)(A2 B2)(=G2 | A3)B c2d2 e2f2 | =g4 g(ef)^d e4 |
A3(B c2)(A2 B2)=G2 | A3(B c2)(A2 B2)=G2 | A3(B c2)(d2 e2)c2 | cBA^G (A4 ">"A4) :|
